outputs/icons/social/add_group_sharp.svg

<svg xmlns="http://www.w3.org/2000/svg" width="1200" height="1200" fill="none"><g fill="#000" clip-path="url(#a)"><path d="M400 800c116.5 0 350 58.5 350 175v125H50V975c0-116.5 233.5-175 350-175M800 800c116.5 0 350 58.5 350 175v125H850V975c0-74-40.49-130.51-98.485-172.51 17.495-1.5 33.99-2.49 48.485-2.49M400 400c83 0 149.51 67 149.51 150S483 700 400 700s-150-67-150-150 67-150 150-150M800 400c83 0 149.51 67 149.51 150S883 700 800 700s-150-67-150-150 67-150 150-150M1050 100v100h100v100h-100v100H950V300H850V200h100V100z"/></g><defs><clipPath id="a"><path fill="#fff" d="M0 0h1200v1200H0z"/></clipPath></defs></svg>

<svg width="1200" height="1200" viewBox="0 0 1200 1200" fill="none" xmlns="http://www.w3.org/2000/svg"><g clip-path="url(#clip0_122_372)"><path d="M400 800C516.5 800 750 858.5 750 975V1100H50V975C50 858.5 283.5 800 400 800Z" fill="black"/><path d="M800 800C916.5 800 1150 858.5 1150 975V1100H850V975C850 901 809.51 844.49 751.515 802.49C769.01 800.99 785.505 800 800 800Z" fill="black"/><path d="M400 400C483 400 549.51 467 549.51 550C549.51 633 483 700 400 700C317 700 250 633 250 550C250 467 317 400 400 400Z" fill="black"/><path d="M800 400C883 400 949.51 467 949.51 550C949.51 633 883 700 800 700C717 700 650 633 650 550C650 467 717 400 800 400Z" fill="black"/><path d="M1050 100V200H1150V300H1050V400H950V300H850V200H950V100H1050Z" fill="black"/></g><defs><clipPath id="clip0_122_372"><path width="24" fill="white" d="M0 0H1200V1200H0V0z"/></clipPath></defs></svg>
